;FLAVOR:Marlin
;TIME:9098
;Filament used: 7.04442m
;Layer height: 0.2
;MINX:70.233
;MINY:70.235
;MINZ:0.24
;MAXX:149.765
;MAXY:149.765
;MAXZ:32.29
;Generated with Cura_SteamEngine 4.5.0
M140 S50
M105
M190 S50
M104 S200
M105
M109 S200
M82 ;absolute extrusion mode
M201 X500.00 Y500.00 Z100.00 E5000.00 ;Setup machine max acceleration
M203 X500.00 Y500.00 Z10.00 E50.00 ;Setup machine max feedrate
M204 P500.00 R1000.00 T500.00 ;Setup Print/Retract/Travel acceleration
M205 X8.00 Y8.00 Z0.40 E5.00 ;Setup Jerk
M220 S100 ;Reset Feedrate
M221 S100 ;Reset Flowrate

G28 ;Home

G92 E0 ;Reset Extruder
G1 Z2.0 F3000 ;Move Z Axis up
G1 X10.1 Y20 Z0.28 F5000.0 ;Move to start position
G1 X10.1 Y200.0 Z0.28 F1500.0 E15 ;Draw the first line
G1 X10.4 Y200.0 Z0.28 F5000.0 ;Move to side a little
G1 X10.4 Y20 Z0.28 F1500.0 E30 ;Draw the second line
G92 E0 ;Reset Extruder
G1 Z2.0 F3000 ;Move Z Axis up

G92 E0
G92 E0
G1 F2700 E-5
;LAYER_COUNT:156
;LAYER:-6
M107
G0 F9000 X82.611 Y82.655 Z0.24
;TYPE:SUPPORT-INTERFACE
G1 F2700 E0
G1 F900 X83.24 Y82.057 E0.06928
G1 X83.521 Y81.812 E0.09904
G1 X86.398 Y79.36 E0.40079
G1 X87.118 Y78.79 E0.47409
G1 X87.25 Y78.692 E0.48721
G1 X88.028 Y78.161 E0.5624
G1 X88.262 Y78.015 E0.58442
G1 X91.444 Y76.066 E0.88228
G1 X92.415 Y75.525 E0.97101
G1 X93.138 Y75.179 E1.03499
G1 X93.521 Y75.013 E1.06831
G1 X96.981 Y73.581 E1.36722
G1 X97.894 Y73.241 E1.44499
G1 X98.026 Y73.198 E1.45607
G1 X99.205 Y72.864 E1.55389
G1 X102.842 Y71.992 E1.85244
G1 X103.939 Y71.775 E1.9417
G1 X104.793 Y71.664 E2.01044
G1 X105.14 Y71.632 E2.03826
G1 X108.853 Y71.34 E2.33556
G1 X109.836 Y71.299 E2.4141
G1 X109.993 Y71.298 E2.42663
G1 X111.205 Y71.345 E2.52345
G1 X114.929 Y71.639 E2.82164
G1 X115.879 Y71.748 E2.89797
G1 X116.035 Y71.773 E2.91059
G1 X117.252 Y72.014 E3.00962
G1 X120.886 Y72.886 E3.30793
G1 X121.765 Y73.132 E3.3808
G1 X121.959 Y73.193 E3.39703
G1 X122.96 Y73.556 E3.48202
G1 X126.557 Y75.048 E3.79287
G1 X127.562 Y75.513 E3.88127
G1 X128.402 Y75.973 E3.95772
G1 X128.649 Y76.123 E3.98078
G1 X131.826 Y78.072 E4.2783
G1 X132.597 Y78.583 E4.35214
G1 X132.757 Y78.697 E4.36782
G1 X133.49 Y79.264 E4.44179
G1 X133.69 Y79.432 E4.46264
G1 X136.526 Y81.854 E4.76035
G1 X137.345 Y82.611 E4.84937
G1 X137.943 Y83.24 E4.91865
G1 X138.188 Y83.521 E4.94841
G1 X140.64 Y86.398 E5.25016
G1 X141.21 Y87.118 E5.32346
G1 X141.308 Y87.25 E5.33658
G1 X141.839 Y88.028 E5.41177
G1 X141.983 Y88.258 E5.43343
G1 X143.938 Y91.453 E5.73243
G1 X144.475 Y92.415 E5.82038
G1 X144.805 Y93.102 E5.88121
G1 X144.987 Y93.521 E5.91768
G1 X146.419 Y96.981 E6.21659
G1 X146.798 Y98.013 E6.30435
G1 X147.136 Y99.205 E6.40325
G1 X148.004 Y102.82 E6.70002
G1 X148.221 Y103.917 E6.78928
G1 X148.33 Y104.733 E6.855
G1 X148.368 Y105.139 E6.88755
G1 X148.659 Y108.831 E7.18317
G1 X148.701 Y109.837 E7.26355
G1 X148.702 Y109.991 E7.27584
G1 X148.655 Y111.205 E7.37282
G1 X148.362 Y114.924 E7.67061
G1 X148.252 Y115.879 E7.74734
G1 X148.227 Y116.035 E7.75995
G1 X147.988 Y117.245 E7.85841
G1 X147.114 Y120.886 E8.1573
G1 X146.868 Y121.765 E8.23016
G1 X146.807 Y121.959 E8.2464
G1 X146.394 Y123.082 E8.34191
G1 X144.952 Y126.557 E8.64223
G1 X144.487 Y127.562 E8.73063
G1 X144.026 Y128.402 E8.80712
G1 X143.898 Y128.615 E8.82695
G1 X141.931 Y131.822 E9.12726
G1 X141.417 Y132.597 E9.2015
G1 X141.312 Y132.745 E9.21598
G1 X140.736 Y133.49 E9.29115
G1 X140.568 Y133.69 E9.312
G1 X138.146 Y136.526 E9.60971
G1 X137.389 Y137.345 E9.69873
G1 X136.76 Y137.943 E9.76801
G1 X136.479 Y138.188 E9.79777
G1 X133.607 Y140.636 E10.09901
G1 X132.882 Y141.21 E10.17282
G1 X132.75 Y141.308 E10.18594
G1 X131.972 Y141.839 E10.26113
G1 X131.738 Y141.985 E10.28315
G1 X128.547 Y143.938 E10.58179
G1 X127.594 Y144.47 E10.66891
G1 X126.9 Y144.805 E10.73043
G1 X126.479 Y144.987 E10.76704
G1 X123.019 Y146.419 E11.06595
G1 X122.106 Y146.759 E11.14372
G1 X121.974 Y146.802 E11.1548
G1 X120.795 Y147.136 E11.25262
G1 X117.158 Y148.008 E11.55117
G1 X116.061 Y148.225 E11.64043
G1 X115.207 Y148.336 E11.70918
G1 X114.86 Y148.368 E11.73699
G1 X111.147 Y148.66 E12.0343
G1 X110.164 Y148.701 E12.11283
G1 X110.007 Y148.702 E12.12536
G1 X108.795 Y148.655 E12.22218
G1 X105.072 Y148.361 E12.52029
G1 X103.978 Y148.231 E12.60824
G1 X103.095 Y148.067 E12.67993
G1 X102.76 Y147.991 E12.70735
G1 X99.103 Y147.111 E13.0076
G1 X98.234 Y146.868 E13.07963
G1 X98.042 Y146.807 E13.09571
G1 X97.112 Y146.472 E13.17461
G1 X96.904 Y146.388 E13.19252
G1 X93.434 Y144.948 E13.49241
G1 X92.437 Y144.487 E13.58009
G1 X91.577 Y144.014 E13.65844
G1 X91.351 Y143.878 E13.6795
G1 X88.17 Y141.926 E13.97741
G1 X87.403 Y141.417 E14.05089
G1 X87.243 Y141.303 E14.06658
G1 X86.506 Y140.733 E14.14095
G1 X86.308 Y140.566 E14.16163
G1 X83.466 Y138.139 E14.45995
G1 X82.652 Y137.386 E14.54847
G1 X82.042 Y136.741 E14.61933
G1 X81.788 Y136.453 E14.64999
G1 X79.354 Y133.596 E14.94959
G1 X78.786 Y132.878 E15.02266
G1 X78.693 Y132.752 E15.03517
G1 X78.143 Y131.944 E15.11319
G1 X78.027 Y131.759 E15.13062
G1 X76.066 Y128.556 E15.43041
G1 X75.525 Y127.585 E15.51914
G1 X75.18 Y126.864 E15.58294
G1 X75.011 Y126.474 E15.61687
G1 X73.572 Y122.995 E15.9174
G1 X73.241 Y122.106 E15.99312
G1 X73.198 Y121.974 E16.0042
G1 X72.864 Y120.795 E16.10202
G1 X71.983 Y117.117 E16.40392
G1 X71.775 Y116.062 E16.48975
G1 X71.662 Y115.188 E16.5601
G1 X71.632 Y114.86 E16.58639
G1 X71.339 Y111.126 E16.88537
G1 X71.299 Y110.162 E16.96239
G1 X71.298 Y110.008 E16.97468
G1 X71.345 Y108.794 E17.07166
G1 X71.638 Y105.076 E17.36937
G1 X71.748 Y104.121 E17.4461
G1 X71.773 Y103.965 E17.45871
G1 X72.015 Y102.741 E17.55831
G1 X72.892 Y99.092 E17.85788
G1 X73.132 Y98.235 E17.92893
G1 X73.193 Y98.041 E17.94516
G1 X73.606 Y96.918 E18.04067
G1 X75.048 Y93.443 E18.341
G1 X75.513 Y92.438 E18.42939
G1 X75.974 Y91.598 E18.50588
G1 X76.102 Y91.385 E18.52571
G1 X78.069 Y88.178 E18.82603
G1 X78.583 Y87.403 E18.90026
G1 X78.688 Y87.255 E18.91474
G1 X79.264 Y86.51 E18.98992
G1 X79.432 Y86.31 E19.01077
G1 X81.854 Y83.474 E19.30847
G1 X82.611 Y82.655 E19.39749
G0 F9000 X83.2 Y82.095
G1 F900 X83.2 Y137.892 E23.85145
G0 F9000 X84.8 Y139.278
G1 F900 X84.8 Y80.721 E28.52572
G0 F9000 X86.4 Y79.358
G1 F900 X86.4 Y140.643 E33.41776
G0 F9000 X88 Y141.813
G1 F900 X88 Y78.18 E38.49722
G0 F9000 X89.6 Y77.195
G1 F900 X89.6 Y142.803 E43.73433
G0 F9000 X91.2 Y143.785
G1 F900 X91.2 Y76.215 E49.12806
G0 F9000 X92.8 Y75.34
G1 F900 X92.8 Y144.654 E54.66101
G0 F9000 X94.4 Y145.348
G1 F900 X94.4 Y74.649 E60.30451
G0 F9000 X96 Y73.987
G1 F900 X96 Y146.012 E66.05385
G0 F9000 X97.6 Y146.647
G1 F900 X97.6 Y73.35 E71.90474
G0 F9000 X99.2 Y72.865
G1 F900 X99.2 Y147.134 E77.83321
G0 F9000 X100.8 Y147.519
G1 F900 X100.8 Y72.481 E83.82307
G0 F9000 X102.4 Y72.097
G1 F900 X102.4 Y147.904 E89.87431
G0 F9000 X104 Y148.233
G1 F900 X104 Y71.767 E95.97816
G0 F9000 X105.6 Y71.595
G1 F900 X105.6 Y148.402 E102.10922
G0 F9000 X107.2 Y148.529
G1 F900 X107.2 Y71.469 E108.26048
G0 F9000 X108.8 Y71.344
G1 F900 X108.8 Y148.655 E114.43178
G0 F9000 X110.4 Y148.692
G1 F900 X110.4 Y71.314 E120.60843
G0 F9000 X112 Y71.408
G1 F900 X112 Y148.593 E126.76967
G0 F9000 X113.6 Y148.468
G1 F900 X113.6 Y71.535 E132.9108
G0 F9000 X115.2 Y71.671
G1 F900 X115.2 Y148.337 E139.03061
G0 F9000 X116.8 Y148.079
G1 F900 X116.8 Y71.925 E145.10955
G0 F9000 X118.4 Y72.29
G1 F900 X118.4 Y147.711 E151.12998
G0 F9000 X120 Y147.327
G1 F900 X120 Y72.674 E157.0891
G0 F9000 X121.6 Y73.086
G1 F900 X121.6 Y146.908 E162.9819
G0 F9000 X123.2 Y146.345
G1 F900 X123.2 Y73.656 E168.78425
G0 F9000 X124.8 Y74.32
G1 F900 X124.8 Y145.682 E174.48067
G0 F9000 X126.4 Y145.02
G1 F900 X126.4 Y74.983 E180.07133
G0 F9000 X128 Y75.753
G1 F900 X128 Y144.244 E185.53857
G0 F9000 X129.6 Y143.294
G1 F900 X129.6 Y76.707 E190.85384
G0 F9000 X131.2 Y77.688
G1 F900 X131.2 Y142.315 E196.01264
G0 F9000 X132.8 Y141.271
G1 F900 X132.8 Y78.731 E201.00485
G0 F9000 X134.4 Y80.039
G1 F900 X134.4 Y139.961 E205.78809
G0 F9000 X136 Y138.597
G1 F900 X136 Y81.405 E210.3534
G0 F9000 X137.6 Y82.88
G1 F900 X137.6 Y137.117 E214.68283
G0 F9000 X139.2 Y135.292
G1 F900 X139.2 Y84.709 E218.72059
G0 F9000 X140.8 Y86.601
G1 F900 X140.8 Y133.408 E222.45692
G0 F9000 X142.4 Y131.058
G1 F900 X142.4 Y88.94 E225.81896
G0 F9000 X144 Y91.565
G1 F900 X144 Y128.446 E228.76297
G0 F9000 X145.6 Y124.996
G1 F900 X145.6 Y95.003 E231.15714
G1 F2700 E226.15714
G0 F9000 X146.583 Y94.595
G0 X147.695 Y97.396
G0 X148.131 Y98.802
G0 X147.2 Y99.472
G1 F2700 E231.15714
G1 F900 X147.2 Y120.528 E232.83792
G1 F2700 E227.83792
G0 F9000 X148.175 Y121.034
G0 X147.818 Y122.291
G0 X147.359 Y123.532
G0 X145.427 Y128.061
G0 X142.888 Y132.301
G0 X141.564 Y134.159
G0 X138.133 Y138.107
G0 X134.382 Y141.377
G0 X132.541 Y142.738
G0 X128.081 Y145.417
G0 X126.89 Y145.968
G0 X122.278 Y147.823
G0 X117.381 Y149.05
G0 X115.312 Y149.395
G0 X110.196 Y149.765
G0 X108.713 Y149.716
G0 X103.795 Y149.279
G0 X102.52 Y149.028
G0 X97.924 Y147.887
G0 X96.494 Y147.371
G0 X91.939 Y145.427
G0 X87.692 Y142.884
G0 X85.828 Y141.553
G0 X81.899 Y138.139
G0 X80.982 Y137.149
G0 X81.6 Y136.232
G1 F2700 E232.83792
G1 F900 X81.6 Y83.771 E237.02558
G0 F9000 X80 Y85.644
G1 F900 X80 Y134.354 E240.91382
G0 F9000 X78.4 Y132.321
G1 F900 X78.4 Y87.678 E244.47742
G0 F9000 X76.8 Y90.246
G1 F900 X76.8 Y129.754 E247.63112
G0 F9000 X75.2 Y126.905
G1 F900 X75.2 Y93.114 E250.32846
G0 F9000 X73.6 Y96.934
G1 F900 X73.6 Y123.062 E252.41411
G1 F2700 E247.41411
G0 F9000 X72.58 Y123.382
G0 X72.177 Y122.278
G0 X70.971 Y117.469
G0 X72 Y117.187
G1 F2700 E252.41411
G1 F900 X72 Y102.816 E253.56127
G1 F2700 E248.56127
G0 F300 X72 Y102.816 Z0.54
G0 F9000 X70.942 Y102.663
G0 X70.695 Y103.968
G0 X70.27 Y108.917
G0 X70.235 Y110.194
G0 X70.619 Y115.435
G0 X70.971 Y117.469
G0 X72.177 Y122.278
G0 X74.034 Y126.895
G0 X74.65 Y128.209
G0 X77.093 Y132.272
G0 X78.142 Y131.943
;TIME_ELAPSED:225.545418
;LAYER:-5
M140 S50
;TYPE:SUPPORT
G1 F2700 E253.56127
G1 F900 X78.693 Y132.751 E253.65885
G1 X78.786 Y132.877 E253.67448
G1 X79.354 Y133.595 E253.76583
G1 X81.788 Y136.451 E254.14025
G1 X82.041 Y136.74 E254.17858
G1 X82.652 Y137.385 E254.26723
G1 X83.466 Y138.138 E254.37787
G1 X86.308 Y140.565 E254.75078
G1 X86.506 Y140.732 E254.77663
G1 X87.242 Y141.302 E254.86951
G1 X87.403 Y141.416 E254.8892
G1 X88.169 Y141.925 E254.98096
G1 X88.209 Y141.949 E254.98562
G1 X78.04 Y131.78 E256.42057
G1 X78.027 Y131.758 E256.42312
G1 X76.065 Y128.555 E256.79791
G1 X75.859 Y128.185 E256.84017
G1 X91.821 Y144.147 E259.09258
G1 X92.437 Y144.485 E259.16269
G1 X93.434 Y144.946 E259.27229
G1 X94.461 Y145.373 E259.38327
G1 X74.622 Y125.534 E262.18277
G1 X73.623 Y123.121 E262.44336
G1 X96.879 Y146.376 E265.72496
G1 X96.904 Y146.387 E265.72768
G1 X97.111 Y146.47 E265.74994
G1 X98.041 Y146.806 E265.8486
G1 X98.234 Y146.867 E265.8688
G1 X98.997 Y147.08 E265.94784
G1 X72.923 Y121.007 E269.62709
G1 X72.863 Y120.794 E269.64917
G1 X72.466 Y119.135 E269.81938
G1 X100.864 Y147.533 E273.82665
G1 X102.727 Y147.982 E274.01786
G1 X72.02 Y117.275 E278.35095
G1 X71.982 Y117.115 E278.36736
G1 X71.774 Y116.06 E278.47466
G1 X71.708 Y115.549 E278.52607
G1 X104.444 Y148.285 E283.14547
G1 X105.072 Y148.36 E283.20858
G1 X106.007 Y148.433 E283.30216
G1 X71.563 Y113.989 E288.16258
G1 X71.443 Y112.455 E288.31611
G1 X107.543 Y148.555 E293.41021
G1 X108.794 Y148.654 E293.53542
G1 X109.066 Y148.664 E293.56258
G1 X71.33 Y110.928 E298.88754
G1 X71.298 Y110.161 E298.96414
G1 X71.297 Y110.007 E298.9795
G1 X71.316 Y109.5 E299.03013
G1 X110.502 Y148.686 E304.5597
G1 X111.147 Y148.659 E304.62411
G1 X111.835 Y148.604 E304.69298
G1 X71.394 Y108.164 E310.39957
G1 X71.497 Y106.853 E310.53078
G1 X113.146 Y148.501 E316.40784
G1 X114.457 Y148.398 E316.53905
G1 X71.6 Y105.542 E322.58657
G1 X71.637 Y105.075 E322.63331
G1 X71.731 Y104.258 E322.71537
G1 X115.739 Y148.266 E328.92537
G1 X116.06 Y148.224 E328.95768
G1 X116.937 Y148.05 E329.04689
G1 X71.95 Y103.063 E335.39504
G1 X72.015 Y102.74 E335.42792
G1 X72.213 Y101.912 E335.51286
G1 X118.086 Y147.784 E341.98597
G1 X119.226 Y147.51 E342.10296
G1 X72.487 Y100.771 E348.69834
G1 X72.761 Y99.632 E348.81523
G1 X120.367 Y147.237 E355.53288
G1 X120.795 Y147.134 E355.5768
G1 X121.483 Y146.939 E355.64816
G1 X73.054 Y98.509 E362.48208
G1 X73.131 Y98.234 E362.51058
G1 X73.192 Y98.04 E362.53087
G1 X73.408 Y97.45 E362.59356
G1 X122.55 Y146.592 E369.52803
G1 X123.018 Y146.418 E369.57785
G1 X123.564 Y146.192 E369.63681
G1 X73.805 Y96.433 E376.65834
G1 X74.22 Y95.433 E376.76637
G1 X124.564 Y145.777 E383.87046
G1 X125.565 Y145.364 E383.9785
G1 X74.635 Y94.434 E391.16528
G1 X75.048 Y93.442 E391.2725
G1 X75.05 Y93.435 E391.27322
G1 X126.564 Y144.949 E398.5424
G1 X126.9 Y144.804 E398.57892
G1 X127.529 Y144.5 E398.64863
G1 X75.498 Y92.469 E405.99076
G1 X75.513 Y92.437 E405.99429
G1 X75.974 Y91.597 E406.0899
G1 X75.999 Y91.555 E406.09477
G1 X128.439 Y143.995 E413.49462
G1 X128.546 Y143.937 E413.50677
G1 X129.32 Y143.462 E413.59738
G1 X76.535 Y90.677 E421.04592
G1 X77.073 Y89.801 E421.14849
G1 X130.198 Y142.926 E428.645
G1 X131.075 Y142.389 E428.74761
G1 X77.61 Y88.924 E436.2921
G1 X78.068 Y88.177 E436.37953
G1 X78.151 Y88.051 E436.39459
G1 X131.951 Y141.85 E443.98628
G1 X131.971 Y141.838 E443.9886
G1 X132.75 Y141.307 E444.08267
G1 X132.791 Y141.276 E444.0878
G1 X78.722 Y87.208 E451.71745
G1 X79.263 Y86.508 E451.80573
G1 X79.343 Y86.414 E451.81804
G1 X133.583 Y140.654 E459.47189
G1 X133.607 Y140.635 E459.47495
G1 X134.347 Y140.004 E459.57198
G1 X79.993 Y85.65 E467.24192
G1 X80.645 Y84.888 E467.34199
G1 X135.11 Y139.353 E475.02759
G1 X135.874 Y138.702 E475.12774
G1 X81.296 Y84.125 E482.82922
G1 X81.853 Y83.473 E482.91478
G1 X81.952 Y83.366 E482.92933
G1 X136.635 Y138.049 E490.64569
G1 X136.76 Y137.942 E490.66211
G1 X137.366 Y137.366 E490.74553
G1 X82.633 Y82.633 E498.46895
G1 X83.239 Y82.056 E498.55244
G1 X83.363 Y81.949 E498.56878
G1 X138.047 Y136.632 E506.28521
G1 X138.145 Y136.526 E506.29962
G1 X138.702 Y135.874 E506.38518
G1 X84.125 Y81.297 E514.08659
G1 X84.888 Y80.646 E514.18666
G1 X139.353 Y135.111 E521.87226
G1 X140.005 Y134.348 E521.97241
G1 X85.652 Y79.995 E529.6422
G1 X86.397 Y79.36 E529.73988
G1 X86.416 Y79.345 E529.74229
G1 X140.656 Y133.585 E537.39614
G1 X140.735 Y133.49 E537.40847
G1 X141.276 Y132.791 E537.49667
G1 X87.208 Y78.722 E545.12632
G1 X87.249 Y78.691 E545.13145
G1 X88.027 Y78.16 E545.22543
G1 X88.048 Y78.148 E545.22785
G1 X141.847 Y131.948 E552.81954
G1 X141.93 Y131.821 E552.83467
G1 X142.388 Y131.074 E552.9221
G1 X88.923 Y77.609 E560.46659
G1 X89.8 Y77.072 E560.5692
G1 X142.926 Y130.198 E568.06586
G1 X143.464 Y129.322 E568.16843
G1 X90.677 Y76.535 E575.61725
G1 X91.443 Y76.066 E575.70687
G1 X91.559 Y76.002 E575.72009
G1 X144 Y128.443 E583.12008
G1 X144.024 Y128.402 E583.12482
G1 X144.485 Y127.562 E583.22043
G1 X144.5 Y127.53 E583.22395
G1 X92.469 Y75.499 E590.56609
G1 X93.137 Y75.179 E590.64
G1 X93.434 Y75.05 E590.67231
G1 X144.948 Y126.563 E597.94142
G1 X144.951 Y126.556 E597.94218
G1 X145.363 Y125.564 E598.04936
G1 X94.434 Y74.635 E605.23599
G1 X95.434 Y74.221 E605.34398
G1 X145.778 Y124.565 E612.44806
G1 X146.193 Y123.566 E612.556
G1 X96.434 Y73.807 E619.57754
G1 X96.98 Y73.58 E619.63654
G1 X97.448 Y73.406 E619.68636
G1 X146.59 Y122.548 E626.62082
G1 X146.806 Y121.958 E626.68352
G1 X146.867 Y121.765 E626.70371
G1 X146.945 Y121.489 E626.73233
G1 X98.515 Y73.059 E633.56633
G1 X99.204 Y72.864 E633.63778
G1 X99.632 Y72.761 E633.6817
G1 X147.238 Y120.367 E640.39942
G1 X147.511 Y119.227 E640.51639
G1 X100.772 Y72.488 E647.11177
G1 X101.913 Y72.214 E647.22885
G1 X147.786 Y118.087 E653.70203
G1 X147.987 Y117.245 E653.7884
G1 X148.049 Y116.936 E653.81985
G1 X103.061 Y71.948 E660.16814
G1 X103.938 Y71.774 E660.25736
G1 X104.26 Y71.733 E660.28974
G1 X148.267 Y115.74 E666.49961
G1 X148.361 Y114.923 E666.58167
G1 X148.398 Y114.457 E666.62831
G1 X105.542 Y71.6 E672.67582
G1 X106.853 Y71.497 E672.80704
G1 X148.501 Y113.146 E678.68409
G1 X148.604 Y111.835 E678.81531
G1 X108.164 Y71.394 E684.5219
G1 X108.852 Y71.34 E684.59076
G1 X109.496 Y71.313 E684.65507
G1 X148.681 Y110.498 E690.1845
G1 X148.701 Y109.991 E690.23513
G1 X148.699 Y109.837 E690.2505
G1 X148.668 Y109.07 E690.32709
