;FLAVOR:Marlin
;TIME:8874
;Filament used: 5.84345m
;Layer height: 0.2
;MINX:38.085
;MINY:67.052
;MINZ:0.24
;MAXX:181.89
;MAXY:152.961
;MAXZ:21.09
;Generated with Cura_SteamEngine 4.5.0
M140 S50
M105
M190 S50
M104 S200
M105
M109 S200
M82 ;absolute extrusion mode
M201 X500.00 Y500.00 Z100.00 E5000.00 ;Setup machine max acceleration
M203 X500.00 Y500.00 Z10.00 E50.00 ;Setup machine max feedrate
M204 P500.00 R1000.00 T500.00 ;Setup Print/Retract/Travel acceleration
M205 X8.00 Y8.00 Z0.40 E5.00 ;Setup Jerk
M220 S100 ;Reset Feedrate
M221 S100 ;Reset Flowrate

G28 ;Home

G92 E0 ;Reset Extruder
G1 Z2.0 F3000 ;Move Z Axis up
G1 X10.1 Y20 Z0.28 F5000.0 ;Move to start position
G1 X10.1 Y200.0 Z0.28 F1500.0 E15 ;Draw the first line
G1 X10.4 Y200.0 Z0.28 F5000.0 ;Move to side a little
G1 X10.4 Y20 Z0.28 F1500.0 E30 ;Draw the second line
G92 E0 ;Reset Extruder
G1 Z2.0 F3000 ;Move Z Axis up

G92 E0
G92 E0
G1 F2700 E-5
;LAYER_COUNT:100
;LAYER:-6
M107
G0 F9000 X56.404 Y75.058 Z0.24
;TYPE:SUPPORT-INTERFACE
G1 F2700 E0
G1 F900 X56.556 Y74.952 E0.01479
G1 X57.408 Y74.401 E0.09579
G1 X57.996 Y74.067 E0.14977
G1 X62.353 Y71.736 E0.54421
G1 X63.194 Y71.324 E0.61896
G1 X63.381 Y71.24 E0.63533
G1 X64.34 Y70.859 E0.7177
G1 X65.174 Y70.589 E0.78767
G1 X69.693 Y69.217 E1.16466
G1 X70.648 Y68.965 E1.2435
G1 X70.797 Y68.931 E1.2557
G1 X71.832 Y68.741 E1.3397
G1 X72.517 Y68.657 E1.39479
G1 X77.409 Y68.174 E1.78719
G1 X78.335 Y68.116 E1.86125
G1 X78.546 Y68.112 E1.87809
G1 X80.082 Y68.158 E2.00076
G1 X80.314 Y68.179 E2.01935
G1 X85.181 Y68.659 E2.40974
G1 X86.124 Y68.786 E2.4857
G1 X86.307 Y68.818 E2.50053
G1 X87.318 Y69.036 E2.58308
G1 X87.97 Y69.215 E2.63706
G1 X92.667 Y70.637 E3.0288
G1 X93.587 Y70.953 E3.10645
G1 X93.756 Y71.019 E3.12093
G1 X94.579 Y71.369 E3.19232
G1 X94.743 Y71.446 E3.20678
G1 X95.348 Y71.751 E3.26086
G1 X99.668 Y74.06 E3.65187
G1 X100.501 Y74.544 E3.72878
G1 X100.641 Y74.633 E3.74202
G1 X101.507 Y75.23 E3.82598
G1 X102.041 Y75.646 E3.88001
G1 X105.851 Y78.771 E4.27336
G1 X106.573 Y79.408 E4.35022
G1 X106.698 Y79.527 E4.36399
G1 X107.33 Y80.174 E4.43619
G1 X107.443 Y80.297 E4.44952
G1 X107.91 Y80.841 E4.50676
G1 X109.73 Y83.058 E4.73572
G1 X110.187 Y83.547 E4.78915
G1 X110.712 Y83.984 E4.84367
G1 X111.288 Y84.351 E4.89819
G1 X111.905 Y84.642 E4.95265
G1 X112.555 Y84.853 E5.0072
G1 X113.225 Y84.98 E5.06163
G1 X113.907 Y85.022 E5.11618
G1 X114.588 Y84.978 E5.17065
G1 X115.259 Y84.847 E5.22522
G1 X115.907 Y84.633 E5.2797
G1 X116.524 Y84.339 E5.33425
G1 X117.093 Y83.972 E5.3883
G1 X117.404 Y83.725 E5.42
G1 X118.952 Y82.402 E5.58255
G1 X119.655 Y81.843 E5.65425
G1 X119.808 Y81.729 E5.66948
G1 X120.535 Y81.232 E5.73977
G1 X120.707 Y81.124 E5.75599
G1 X121.339 Y80.75 E5.81461
G1 X125.633 Y78.371 E6.20646
G1 X126.453 Y77.954 E6.2799
G1 X126.603 Y77.885 E6.29308
G1 X127.589 Y77.476 E6.37829
G1 X128.29 Y77.234 E6.43748
G1 X132.941 Y75.776 E6.82656
G1 X133.883 Y75.518 E6.90453
G1 X134.072 Y75.473 E6.92003
G1 X134.92 Y75.306 E6.98902
G1 X135.097 Y75.278 E7.00333
G1 X135.884 Y75.177 E7.06667
G1 X140.741 Y74.684 E7.45637
G1 X141.632 Y74.625 E7.52764
G1 X141.826 Y74.619 E7.54314
G1 X142.855 Y74.631 E7.62528
G1 X143.571 Y74.68 E7.68257
G1 X144.131 Y74.735 E7.72749
G1 X148.517 Y75.183 E8.07942
G1 X149.443 Y75.31 E8.15403
G1 X149.612 Y75.34 E8.16773
G1 X150.664 Y75.571 E8.2537
G1 X151.288 Y75.746 E8.30544
G1 X151.603 Y75.841 E8.3317
G1 X156.062 Y77.241 E8.70477
G1 X156.907 Y77.543 E8.7764
G1 X157.112 Y77.625 E8.79402
G1 X158.497 Y78.264 E8.91578
G1 X158.919 Y78.489 E8.95395
G1 X163.027 Y80.77 E9.32903
G1 X163.81 Y81.243 E9.40205
G1 X163.997 Y81.368 E9.42001
G1 X165.132 Y82.198 E9.53225
G1 X165.248 Y82.291 E9.54412
G1 X165.582 Y82.569 E9.57881
G1 X169.164 Y85.648 E9.95585
G1 X169.821 Y86.254 E10.0272
G1 X169.976 Y86.409 E10.0447
G1 X170.851 Y87.368 E10.14832
G1 X170.941 Y87.477 E10.15961
G1 X171.292 Y87.913 E10.20429
G1 X174.157 Y91.616 E10.57802
G1 X174.703 Y92.377 E10.65278
G1 X174.811 Y92.542 E10.66853
G1 X175.516 Y93.729 E10.77873
G1 X175.823 Y94.324 E10.83217
G1 X177.866 Y98.491 E11.20263
G1 X178.252 Y99.359 E11.27846
G1 X178.321 Y99.529 E11.2931
G1 X178.742 Y100.728 E11.39454
G1 X178.946 Y101.446 E11.45412
G1 X180.13 Y106.029 E11.83197
G1 X180.322 Y106.9 E11.90317
G1 X180.355 Y107.079 E11.9177
G1 X180.526 Y108.349 E12.01999
G1 X180.585 Y109.115 E12.08131
G1 X180.819 Y113.723 E12.44962
G1 X180.833 Y114.704 E12.52793
G1 X180.827 Y114.895 E12.54319
G1 X180.73 Y116.247 E12.65139
G1 X180.706 Y116.447 E12.66747
G1 X180.612 Y117.129 E12.72242
G1 X179.931 Y121.561 E13.08036
G1 X179.749 Y122.519 E13.15819
G1 X179.712 Y122.679 E13.1713
G1 X179.433 Y123.704 E13.2561
G1 X179.119 Y124.619 E13.33332
G1 X177.488 Y129.018 E13.70783
G1 X177.127 Y129.89 E13.78316
G1 X177.052 Y130.056 E13.7977
G1 X176.659 Y130.843 E13.86792
G1 X176.579 Y130.991 E13.88135
G1 X176.211 Y131.624 E13.9398
G1 X176.086 Y131.829 E13.95897
G1 X173.636 Y135.762 E14.32885
G1 X172.985 Y136.717 E14.4211
G1 X172.335 Y137.536 E14.50457
G1 X171.826 Y138.106 E14.56557
G1 X171.663 Y138.281 E14.58466
G1 X168.429 Y141.679 E14.95911
G1 X167.639 Y142.444 E15.04689
G1 X166.833 Y143.12 E15.13087
G1 X166.242 Y143.561 E15.18973
G1 X166.034 Y143.707 E15.21001
G1 X162.209 Y146.369 E15.58201
G1 X161.395 Y146.893 E15.65928
G1 X161.227 Y146.993 E15.67489
G1 X160.337 Y147.473 E15.75561
G1 X159.424 Y147.892 E15.83579
G1 X155.105 Y149.742 E16.21085
G1 X154.216 Y150.085 E16.28691
G1 X154.075 Y150.134 E16.29883
G1 X153.075 Y150.436 E16.38222
G1 X152.113 Y150.658 E16.46102
G1 X147.508 Y151.602 E16.83626
G1 X146.587 Y151.756 E16.9108
G1 X146.404 Y151.78 E16.92553
G1 X145.379 Y151.872 E17.00768
G1 X144.59 Y151.896 E17.07069
G1 X144.387 Y151.897 E17.0869
G1 X139.727 Y151.895 E17.45888
G1 X138.603 Y151.85 E17.54867
G1 X137.542 Y151.729 E17.63391
G1 X136.78 Y151.594 E17.69569
G1 X131.982 Y150.608 E18.08669
G1 X131.06 Y150.384 E18.16243
G1 X130.918 Y150.344 E18.1742
G1 X130.045 Y150.062 E18.24743
G1 X129.895 Y150.008 E18.26016
G1 X129.186 Y149.728 E18.32101
G1 X124.665 Y147.788 E18.71372
G1 X123.694 Y147.323 E18.79966
G1 X122.895 Y146.871 E18.87293
G1 X122.752 Y146.784 E18.8863
G1 X122.119 Y146.37 E18.94667
G1 X118.09 Y143.563 E19.33864
G1 X117.332 Y142.993 E19.41435
G1 X117.22 Y142.902 E19.42587
G1 X116.535 Y142.304 E19.49845
G1 X116.416 Y142.193 E19.51144
G1 X115.88 Y141.661 E19.57172
G1 X112.516 Y138.121 E19.96154
G1 X112.182 Y137.759 E20.00086
G1 X112.169 Y137.772 E20.00233
G1 X112.043 Y137.646 E20.01655
G1 X111.505 Y137.226 E20.07103
G1 X110.917 Y136.878 E20.12557
G1 X110.291 Y136.606 E20.18006
G1 X109.635 Y136.416 E20.23457
G1 X108.961 Y136.31 E20.28904
G1 X108.279 Y136.289 E20.3435
G1 X107.599 Y136.355 E20.39804
G1 X106.933 Y136.507 E20.45257
G1 X106.291 Y136.741 E20.50711
G1 X105.683 Y137.055 E20.56174
G1 X105.045 Y137.504 E20.62401
G1 X102.037 Y139.973 E20.93465
G1 X101.284 Y140.547 E21.01023
G1 X101.118 Y140.663 E21.0264
G1 X100.266 Y141.214 E21.10739
G1 X99.678 Y141.548 E21.16137
G1 X95.323 Y143.878 E21.55563
G1 X94.48 Y144.291 E21.63057
G1 X94.293 Y144.375 E21.64693
G1 X93.334 Y144.756 E21.7293
G1 X92.655 Y144.979 E21.78635
G1 X87.938 Y146.41 E22.17983
G1 X87.04 Y146.647 E22.25397
G1 X86.873 Y146.685 E22.26764
G1 X85.835 Y146.875 E22.35187
G1 X85.154 Y146.959 E22.40664
G1 X80.231 Y147.443 E22.80151
G1 X79.311 Y147.5 E22.87509
G1 X79.136 Y147.505 E22.88907
G1 X78.092 Y147.49 E22.97241
G1 X77.411 Y147.441 E23.02691
G1 X72.487 Y146.957 E23.42186
G1 X71.556 Y146.831 E23.49686
G1 X71.367 Y146.798 E23.51217
G1 X70.361 Y146.583 E23.59429
G1 X69.587 Y146.365 E23.65848
G1 X64.961 Y144.962 E24.04435
G1 X64.07 Y144.656 E24.11955
G1 X63.929 Y144.601 E24.13164
G1 X63.084 Y144.241 E24.20495
G1 X62.95 Y144.178 E24.21677
G1 X62.328 Y143.865 E24.27236
G1 X57.994 Y141.548 E24.66465
G1 X57.173 Y141.071 E24.74044
G1 X57.033 Y140.982 E24.75369
G1 X56.157 Y140.378 E24.83862
G1 X55.623 Y139.961 E24.89271
G1 X51.816 Y136.838 E25.28577
G1 X51.09 Y136.197 E25.36307
G1 X50.976 Y136.088 E25.37567
G1 X50.344 Y135.441 E25.44786
G1 X50.231 Y135.318 E25.4612
G1 X49.764 Y134.774 E25.51843
G1 X46.643 Y130.971 E25.91114
G1 X46.108 Y130.268 E25.98166
G1 X45.976 Y130.081 E25.99993
G1 X45.495 Y129.344 E26.07018
G1 X45.414 Y129.21 E26.08268
G1 X45.064 Y128.591 E26.13944
G1 X42.765 Y124.292 E26.52859
G1 X42.344 Y123.433 E26.60496
G1 X42.269 Y123.265 E26.61964
G1 X41.888 Y122.305 E26.70209
G1 X41.639 Y121.54 E26.76631
G1 X40.232 Y116.895 E27.15373
G1 X39.993 Y115.991 E27.22837
G1 X39.959 Y115.842 E27.24057
G1 X39.769 Y114.803 E27.32488
G1 X39.686 Y114.125 E27.3794
G1 X39.203 Y109.239 E27.77133
G1 X39.139 Y108.122 E27.86064
G1 X39.155 Y107.054 E27.9459
G1 X39.203 Y106.392 E27.99888
G1 X39.693 Y101.426 E28.39721
G1 X39.813 Y100.533 E28.46914
G1 X39.847 Y100.337 E28.48502
G1 X40.065 Y99.326 E28.56757
G1 X40.262 Y98.615 E28.62647
G1 X41.665 Y93.981 E29.01296
G1 X41.982 Y93.058 E29.09086
G1 X42.048 Y92.889 E29.10534
G1 X42.466 Y91.919 E29.18965
G1 X42.787 Y91.282 E29.24659
G1 X45.091 Y86.972 E29.63671
G1 X45.652 Y86.016 E29.72519
G1 X46.263 Y85.132 E29.81097
G1 X46.667 Y84.614 E29.86341
G1 X49.83 Y80.761 E30.26133
G1 X50.439 Y80.071 E30.3348
G1 X50.548 Y79.956 E30.34744
G1 X51.219 Y79.299 E30.42241
G1 X51.312 Y79.215 E30.43241
G1 X51.822 Y78.774 E30.48623
G1 X55.634 Y75.644 E30.87995
G1 X56.404 Y75.058 E30.95719
G1 F2700 E25.95719
G0 F9000 X55.795 Y74.186
G0 X76.369 Y104.095
G0 X75.754 Y103.225
G1 F2700 E30.95719
G1 F900 X75.224 Y103.629 E31.01039
G1 X74.832 Y104.005 E31.05375
G1 X74.403 Y104.513 E31.10682
G1 X74.178 Y104.84 E31.13851
G1 X73.852 Y105.425 E31.19197
G1 X73.592 Y106.081 E31.24829
G1 X73.421 Y106.724 E31.3014
G1 X73.351 Y107.177 E31.33799
G1 X73.312 Y107.844 E31.39133
G1 X73.35 Y108.445 E31.4394
G1 X73.465 Y109.103 E31.49272
G1 X73.648 Y109.702 E31.54272
G1 X73.912 Y110.313 E31.59585
G1 X74.134 Y110.705 E31.63181
G1 X74.516 Y111.251 E31.685
G1 X74.841 Y111.621 E31.72431
G1 X75.33 Y112.075 E31.77757
G1 X75.759 Y112.392 E31.82015
G1 X76.332 Y112.731 E31.8733
G1 X76.715 Y112.906 E31.90691
G1 X77.348 Y113.128 E31.96046
G1 X78.116 Y113.284 E32.02301
G1 X79.091 Y113.325 E32.10091
G1 X79.754 Y113.254 E32.15414
G1 X80.32 Y113.128 E32.20042
G1 X80.953 Y112.91 E32.25386
G1 X81.564 Y112.61 E32.3082
G1 X82.316 Y112.096 E32.38091
G1 X82.368 Y112.054 E32.38625
G1 X82.857 Y111.596 E32.43973
G1 X83.299 Y111.063 E32.495
G1 X83.658 Y110.504 E32.54803
G1 X83.839 Y110.151 E32.5797
G1 X84.086 Y109.53 E32.63304
G1 X84.242 Y108.942 E32.68161
G1 X84.34 Y108.283 E32.73479
G1 X84.359 Y107.777 E32.77521
G1 X84.317 Y107.112 E32.8284
G1 X84.228 Y106.608 E32.86925
G1 X84.047 Y105.969 E32.92226
G1 X83.904 Y105.607 E32.95333
G1 X83.601 Y105.01 E33.00678
G1 X83.243 Y104.476 E33.05809
G1 X82.807 Y103.965 E33.11172
G1 X82.222 Y103.444 E33.17425
G1 X81.444 Y102.941 E33.2482
G1 X80.838 Y102.66 E33.30152
G1 X80.243 Y102.469 E33.3514
G1 X79.28 Y102.305 E33.42938
G1 X79.208 Y102.299 E33.43515
G1 X78.533 Y102.292 E33.48903
G1 X77.62 Y102.419 E33.56261
G1 X76.801 Y102.673 E33.63106
G1 X76.198 Y102.955 E33.6842
G1 X75.754 Y103.225 E33.72568
G1 F2700 E28.72568
G0 F9000 X76.696 Y103.897
G0 X138.643 Y110.568
G0 X137.783 Y109.939
G1 F2700 E33.72568
G1 F900 X137.408 Y110.492 E33.77902
G1 X137.145 Y110.997 E33.82447
G1 X136.899 Y111.619 E33.87786
G1 X136.735 Y112.263 E33.93091
G1 X136.636 Y113.129 E34.00048
G1 X136.652 Y113.803 E34.0543
G1 X136.82 Y114.741 E34.13037
G1 X137.119 Y115.581 E34.20154
G1 X137.147 Y115.643 E34.20697
G1 X137.461 Y116.228 E34.25997
G1 X137.709 Y116.595 E34.29533
G1 X138.138 Y117.112 E34.34895
G1 X138.716 Y117.64 E34.41145
G1 X139.522 Y118.17 E34.48845
G1 X139.596 Y118.21 E34.49516
G1 X140.203 Y118.485 E34.54836
G1 X140.703 Y118.648 E34.59034
G1 X141.354 Y118.786 E34.64346
G1 X141.895 Y118.838 E34.68684
G1 X142.565 Y118.833 E34.74032
G1 X143.27 Y118.736 E34.79713
G1 X144.181 Y118.464 E34.87302
G1 X144.244 Y118.439 E34.87843
G1 X144.844 Y118.154 E34.93146
G1 X145.188 Y117.946 E34.96354
G1 X145.725 Y117.548 E35.0169
G1 X146.201 Y117.094 E35.06941
G1 X146.625 Y116.581 E35.12253
G1 X146.9 Y116.166 E35.16227
G1 X147.209 Y115.574 E35.21558
G1 X147.431 Y114.987 E35.26568
G1 X147.64 Y114.075 E35.34036
G1 X147.692 Y113.407 E35.39385
G1 X147.65 Y112.647 E35.45461
G1 X147.53 Y111.992 E35.50776
G1 X147.397 Y111.541 E35.5453
G1 X147.146 Y110.922 E35.59861
G1 X146.887 Y110.447 E35.6418
G1 X146.508 Y109.895 E35.69525
G1 X146.054 Y109.388 E35.74958
G1 X145.555 Y108.95 E35.80258
G1 X145.208 Y108.702 E35.83662
G1 X144.632 Y108.369 E35.88973
G1 X144.247 Y108.196 E35.92342
G1 X143.614 Y107.98 E35.97681
G1 X142.94 Y107.842 E36.03173
G1 X141.97 Y107.79 E36.10927
G1 X141.913 Y107.792 E36.11382
G1 X141.25 Y107.86 E36.16703
G1 X140.747 Y107.97 E36.20813
G1 X140.7 Y107.983 E36.21202
G1 X140.066 Y108.198 E36.26546
G1 X139.456 Y108.495 E36.31962
G1 X138.896 Y108.854 E36.37271
G1 X138.544 Y109.136 E36.40872
G1 X138.068 Y109.599 E36.46172
G1 X137.783 Y109.939 E36.49714
G0 F9000 X137.6 Y110.209
G1 F900 X137.6 Y75.002 E39.30751
G0 F9000 X139.2 Y74.84
G1 F900 X139.2 Y108.66 E42.00717
G0 F9000 X140.8 Y107.959
G1 F900 X140.8 Y74.68 E44.66365
G0 F9000 X142.4 Y74.626
G1 F900 X142.4 Y107.813 E47.31278
G0 F9000 X144 Y108.111
G1 F900 X144 Y74.723 E49.97795
G0 F9000 X145.6 Y74.886
G1 F900 X145.6 Y108.989 E52.7002
G0 F9000 X147.2 Y111.055
G1 F900 X147.2 Y75.049 E55.57435
G0 F9000 X148.8 Y75.222
G1 F900 X148.8 Y151.338 E61.65026
G0 F9000 X147.2 Y151.654
G1 F900 X147.2 Y115.591 E64.52897
G0 F9000 X145.6 Y117.64
G1 F900 X145.6 Y151.853 E67.26
G0 F9000 X144 Y151.896
G1 F900 X144 Y118.518 E69.92437
G0 F9000 X142.4 Y118.834
G1 F900 X142.4 Y151.896 E72.56352
G0 F9000 X140.8 Y151.895
G1 F900 X140.8 Y118.669 E75.21577
G0 F9000 X139.2 Y117.959
G1 F900 X139.2 Y151.873 E77.92293
G0 F9000 X137.6 Y151.735
G1 F900 X137.6 Y116.434 E80.74081
G1 F2700 E75.74081
G0 F9000 X138.554 Y115.946
G0 X112.829 Y139.996
G0 X113.6 Y139.261
G1 F2700 E80.74081
G1 F900 X113.6 Y85.004 E85.07184
G0 F9000 X115.2 Y84.858
G1 F900 X115.2 Y140.945 E89.54894
G0 F9000 X116.8 Y142.535
G1 F900 X116.8 Y84.16 E94.20869
G0 F9000 X118.4 Y82.873
G1 F900 X118.4 Y143.778 E99.07039
G0 F9000 X120 Y144.893
G1 F900 X120 Y81.597 E104.12295
G0 F9000 X121.6 Y80.605
G1 F900 X121.6 Y146.008 E109.3437
G0 F9000 X123.2 Y147.043
G1 F900 X123.2 Y79.718 E114.71787
G0 F9000 X124.8 Y78.832
G1 F900 X124.8 Y147.845 E120.22679
G0 F9000 X126.4 Y148.532
G1 F900 X126.4 Y77.98 E125.85855
G0 F9000 X128 Y77.334
G1 F900 X128 Y149.219 E131.59673
G0 F9000 X129.6 Y149.891
G1 F900 X129.6 Y76.823 E137.42933
G0 F9000 X131.2 Y76.321
G1 F900 X131.2 Y150.418 E143.34407
G0 F9000 X132.8 Y150.776
G1 F900 X132.8 Y75.82 E149.32738
G0 F9000 X134.4 Y75.408
G1 F900 X134.4 Y151.104 E155.36977
G0 F9000 X136 Y151.433
G1 F900 X136 Y75.165 E161.45781
G1 F2700 E156.45781
G0 F9000 X135.891 Y74.107
G0 X141.589 Y73.562
G0 X143.255 Y73.589
G0 X146.313 Y73.893
G0 X149.814 Y74.294
G0 X150.4 Y75.514
G1 F2700 E161.45781
G1 F900 X150.4 Y151.01 E167.48422
G0 F9000 X152 Y150.682
G1 F900 X152 Y75.966 E173.44838
G0 F9000 X153.6 Y76.469
G1 F900 X153.6 Y150.278 E179.34013
G0 F9000 X155.2 Y149.702
G1 F900 X155.2 Y76.971 E185.14584
G0 F9000 X156.8 Y77.505
G1 F900 X156.8 Y149.016 E190.85415
G0 F9000 X158.4 Y148.331
G1 F900 X158.4 Y78.22 E196.45072
G0 F9000 X160 Y79.09
G1 F900 X160 Y147.628 E201.92172
G0 F9000 X161.6 Y146.762
G1 F900 X161.6 Y79.978 E207.2527
G0 F9000 X163.2 Y80.875
G1 F900 X163.2 Y145.68 E212.42572
G0 F9000 X164.8 Y144.566
G1 F900 X164.8 Y81.956 E217.42352
G0 F9000 X166.4 Y83.273
G1 F900 X166.4 Y143.444 E222.22663
G0 F9000 X168 Y142.095
G1 F900 X168 Y84.648 E226.8123
G0 F9000 X169.6 Y86.051
G1 F900 X169.6 Y140.449 E231.15458
G0 F9000 X171.2 Y138.768
G1 F900 X171.2 Y87.799 E235.22315
G0 F9000 X172.8 Y89.863
G1 F900 X172.8 Y136.951 E238.98191
G0 F9000 X174.4 Y134.536
G1 F900 X174.4 Y91.955 E242.38091
G0 F9000 X176 Y94.686
G1 F900 X176 Y131.968 E245.35692
G0 F9000 X177.6 Y128.716
G1 F900 X177.6 Y97.949 E247.81288
G1 F2700 E242.81288
G0 F9000 X178.798 Y97.972
G0 X179.319 Y99.159
G0 X179.688 Y100.293
G0 X180.231 Y102.162
G0 X179.2 Y102.43
G1 F2700 E247.81288
